X: 32849
T: Port Na Giobóige
R: reel
M: 4/4
K: Gmajor
dc|BGGF G2 (3Bcd|cAAG A2 (3Bcd|edgd edBG|BAAG A2 dc|
BGGF G2 (3Bcd|cAAG A2Bd|edgd edBG|1 AGGF G2 dc:|2 AGGF G3B||
B|d2 (3Bcd gdBG|d2 (3Bcd gdBG|d2 (3Bcd gdBG|BAAG A2 dc|
dGBd gdBG|dGBd g2 (3Bcd|efgf edBG|1 AGGF G3B:|2 AGGF G2 dc||

